DECONSTUCTING-CAPTURE/CAPTURE/Contents/Resources/Styles/LEGACY/B&W/B&W - Portrait 5.costyle
<?xml version="1.0"?>
<SL Engine="800">
  <E K="BwMagenta" V="0"/>
  <E K="HighlightRecovery" V="36.719"/>
  <E K="BwCyan" V="0"/>
  <E K="Brightness" V="28.125"/>
  <E K="BwEnabled" V="1"/>
  <E K="Name" V="B&amp;W - Portrait 5"/>
  <E K="Contrast" V="26.563"/>
  <E K="BwRed" V="-3.89409"/>
  <E K="UUID" V="925B138E-EE2B-4E89-8A00-20AFE47509A5"/>
  <E K="BwBlue" V="-7.831"/>
  <E K="BwGreen" V="0"/>
  <E K="BwYellow" V="2.083"/>
</SL>

