DECONSTUCTING-CAPTURE/CAPTURE/Contents/Resources/Styles/LEGACY/B&W/B&W - Portrait 3.costyle
<?xml version="1.0"?>
<SL Engine="800">
  <E K="BwMagenta" V="0"/>
  <E K="HighlightRecovery" V="0"/>
  <E K="BwCyan" V="0"/>
  <E K="Brightness" V="14.063"/>
  <E K="BwEnabled" V="1"/>
  <E K="Name" V="B&amp;W - Portrait 3"/>
  <E K="Contrast" V="23.611"/>
  <E K="BwRed" V="14.063"/>
  <E K="UUID" V="A04DAFC4-5061-4BB9-A7FF-A18388B5CA3B"/>
  <E K="BwBlue" V="-7.831"/>
  <E K="BwGreen" V="0"/>
  <E K="BwYellow" V="0.694"/>
</SL>

