DECONSTUCTING-CAPTURE/CAPTURE/Contents/Resources/Styles/LEGACY/B&W/B&W - Portrait 4.costyle
<?xml version="1.0"?>
<SL Engine="800">
  <E K="BwMagenta" V="0"/>
  <E K="HighlightRecovery" V="0"/>
  <E K="BwCyan" V="0"/>
  <E K="Brightness" V="10.156"/>
  <E K="BwEnabled" V="1"/>
  <E K="Name" V="B&amp;W - Portrait 4"/>
  <E K="Contrast" V="25"/>
  <E K="BwRed" V="54.861"/>
  <E K="UUID" V="8E866015-700B-4B7E-8F37-77A93CD30EED"/>
  <E K="BwBlue" V="-7.831"/>
  <E K="BwGreen" V="0"/>
  <E K="BwYellow" V="0.694"/>
</SL>

