DECONSTUCTING-CAPTURE/CAPTURE/Contents/Resources/Styles/SPRING/SPR-09.costyle
<?xml version="1.0"?>
<SL Engine="1100">
	<E K="ColorBalance" V="1;0.995284259319305;0.985602021217346" />
	<E K="ColorBalanceHighlight" V="1;0.995954811573029;0.98864883184433" />
	<E K="ColorBalanceMidtone" V="0.984799206256866;0.995888650417328;1" />
	<E K="ColorBalanceShadow" V="0.974700808525085;0.994183361530304;1" />
	<E K="ColorCorrections" V="1,1,0,-8,-7.5,-1.20000004768372,92.9843444824219,154,51.2815704345703,-32.0059509277344,31.9984130859375,-66.7002792358398,33.2997207641602,20,0,0,0,0;1,1,0,0,0,-1,140,91,72,-20,20,-48.5714302062988,51.4285697937012,20,0,0,0,0;0,1,0,0,-20,0,0,0,0,0,0,0,0,20,0,0,0,0;1,1,0,0,-20,2,97,153,223,-30.84375,36.2567749023438,-56.5022430419922,43.4977569580078,20,0,0,0,0" />
	<E K="GradationCurve" V="0.112177014350891,0;0.319415301084518,0.328701674938202;1,1" />
	<E K="GradationCurveBlue" V="0,0;1,1" />
	<E K="GradationCurveGreen" V="0,0;1,1" />
	<E K="GradationCurveRed" V="0,0;1,1" />
	<E K="GradationCurveY" V="0,0;0.0940398573875427,0.13604910671711;0.473084151744843,0.590997040271759;0.812320590019226,0.917764127254486;1,1" />
	<E K="HighlightRecovery" V="40" />
	<E K="Name" V="SPR-09" />
	<E K="ShadowRecovery" V="5" />
	<E K="UUID" V="C293FC33-D411-414D-BC09-4A920F583CE6" />
</SL>
