DECONSTUCTING-CAPTURE/CAPTURE/Contents/Resources/Styles/SPRING/SPR-03.costyle
<?xml version="1.0"?>
<SL Engine="1100">
	<E K="ColorBalance" V="1;0.989778399467468;0.961489856243134" />
	<E K="ColorBalanceHighlight" V="1.03686094284058;1.0368504524231;1.03685390949249" />
	<E K="ColorBalanceMidtone" V="1;0.991851925849915;0.980536818504333" />
	<E K="ColorBalanceShadow" V="1.02497899532318;1.01892101764679;1.04329788684845" />
	<E K="ColorCorrections" V="1,1,0,-10,-5,-3.20000004768372,101.363136291504,165,58.5126647949219,-29.2115783691406,33.4033813476562,-64.5377807617188,35.4622192382812,20,0,0,0,0;0,1,0,0,0,0,0,0,0,0,0,0,0,20,0,0,0,0;1,1,0,5,-3.53084421157837,-0.200000002980232,135,78.5772476196289,83.8427505493164,-11.2720947265625,14.5060787200928,-41.7946357727051,58.2053642272949,20,0,0,0,0;1,1,0,0,5,-1,96.2223129272461,197.575881958008,204,-42.3262329101562,53.4427490234375,-52.8321990966797,47.1677932739258,20,0,0,0,0" />
	<E K="GradationCurve" V="0,0;1,1" />
	<E K="GradationCurveBlue" V="0,0;1,1" />
	<E K="GradationCurveGreen" V="0,0;1,1" />
	<E K="GradationCurveRed" V="0,0;1,1" />
	<E K="GradationCurveY" V="0,0;0.0899403691291809,0.0530133917927742;0.180129200220108,0.171335563063622;1,1" />
	<E K="HighlightRecovery" V="15" />
	<E K="Name" V="SPR-03" />
	<E K="ShadowRecovery" V="14.6743097305298" />
	<E K="UUID" V="521959F6-CDF9-4C27-8CF2-F3DD30A5364E" />
</SL>
