DECONSTUCTING-CAPTURE/CAPTURE/Contents/Resources/Styles/SPRING/SPR-07.costyle
<?xml version="1.0"?>
<SL Engine="1100">
	<E K="ColorBalance" V="0.937462508678436;0.971537530422211;1" />
	<E K="ColorBalanceHighlight" V="1.07542276382446;1.07541191577911;1.07541191577911" />
	<E K="ColorBalanceMidtone" V="1.06834375858307;1.0402398109436;1.01103687286377" />
	<E K="ColorBalanceShadow" V="0.966818869113922;0.993857562541962;1" />
	<E K="ColorCorrections" V="1,1,0,0,-10,0.5,182,149,140,-20,20,-23.0769214630127,76.9230804443359,20,0,1,0,0;1,1,0,10,-4,0.5,64.27880859375,129,46.4632873535156,-34.3495178222656,36.5979309082031,-63.9819488525391,36.0180511474609,20,0,0,0,0;1,1,0,-20,-10,0.5,143,192,243,-20,20,-41.1522598266602,58.8477401733398,20,0,0,0,0" />
	<E K="GradationCurve" V="0,0;0.159341886639595,0.13539807498455;0.616621553897858,0.645721733570099;1,1" />
	<E K="GradationCurveBlue" V="0,0;1,1" />
	<E K="GradationCurveGreen" V="0,0;1,1" />
	<E K="GradationCurveRed" V="0,0;1,1" />
	<E K="GradationCurveY" V="0.0263361316174269,0;0.0867104679346085,0.0860491096973419;0.161854028701782,0.165773808956146;1,1" />
	<E K="HighlightRecovery" V="15" />
	<E K="Name" V="SPR-07" />
	<E K="ShadowRecovery" V="5" />
	<E K="UUID" V="754FC108-A4C3-43DB-9058-2427615E79E9" />
</SL>
