DECONSTUCTING-CAPTURE/CAPTURE/Contents/Resources/Styles/SPRING/SPR-02.costyle
<?xml version="1.0"?>
<SL Engine="1100">
	<E K="ColorBalance" V="1;0.966541945934296;0.923915803432465" />
	<E K="ColorBalanceHighlight" V="1;1;1" />
	<E K="ColorBalanceMidtone" V="1;0.978027582168579;0.960682153701782" />
	<E K="ColorBalanceShadow" V="1.02757656574249;1.02856373786926;1.04254031181335" />
	<E K="ColorCorrections" V="1,1,0,16,-22,-1.5,70.4109573364258,124,43.9675903320312,-31.6522827148438,34.1659240722656,-64.5422668457031,35.4577331542969,20,0,0,0,0;1,1,0,0,-10,-0.5,148,83.6215362548828,78.9174499511719,-22.7845802307129,21.3777465820312,-46.6774024963379,53.3225898742676,20,0,0,0,0;1,1,0,0,-35,0,168.508346557617,191.828002929688,229,-35.7007446289062,25.0063781738281,-26.4155712127686,73.5844268798828,20,0,0,0,0;1,1,0,-7,5,1.5,141,50.3054351806641,116.75186920166,-19.8663330078125,25.5234069824219,-64.3223876953125,35.6776123046875,20,0,0,0,0;0,1,0,0,7,0,0,0,0,0,0,0,0,20,0,0,0,0" />
	<E K="GradationCurve" V="0,0;0.117960467934608,0.0690662264823914;0.337290197610855,0.323790907859802;1,1" />
	<E K="GradationCurveBlue" V="0,0;1,1" />
	<E K="GradationCurveGreen" V="0,0;1,1" />
	<E K="GradationCurveRed" V="0,0;1,1" />
	<E K="GradationCurveY" V="0,0;0.301471412181854,0.336123526096344;1,1" />
	<E K="HighlightRecovery" V="15" />
	<E K="Name" V="SPR-02" />
	<E K="ShadowRecovery" V="10.1486406326294" />
	<E K="UUID" V="15DA1641-F8D9-4425-A76D-B842DE81CF4B" />
</SL>
