DECONSTUCTING-CAPTURE/CAPTURE/Contents/Resources/Styles/SPRING/SPR-06.costyle
<?xml version="1.0"?>
<SL Engine="1100">
	<E K="ColorBalance" V="1;0.987945258617401;0.963917911052704" />
	<E K="ColorBalanceHighlight" V="1;1;1" />
	<E K="ColorBalanceMidtone" V="1;0.989956259727478;0.976982653141022" />
	<E K="ColorBalanceShadow" V="0.994769036769867;0.979249596595764;1" />
	<E K="ColorCorrections" V="1,1,0,-25,-40,1.5,106,150,214,-35.5555419921875,37.8656616210938,-50.4672889709473,49.5327110290527,20,0,0,0,0;1,1,0,-5,-10,1.5,102.26676940918,161,56.1861686706543,-41.0452880859375,44.0049438476562,-65.1017608642578,34.8982391357422,30,0,0,0,0;1,1,0,2,-5,0,123,47.6200561523438,41.8165855407715,-18.8235969543457,17.4476318359375,-66.0027770996094,33.9972229003906,20,0,0,0,0" />
	<E K="GradationCurve" V="0.0403737872838974,0;0.124185621738434,0.089341513812542;0.479944258928299,0.488783448934555;1,1" />
	<E K="GradationCurveBlue" V="0,0;1,1" />
	<E K="GradationCurveGreen" V="0,0;1,1" />
	<E K="GradationCurveRed" V="0,0;1,1" />
	<E K="GradationCurveY" V="0,0;0.247156575322151,0.274665176868439;0.447990298271179,0.487797617912292;0.744506418704987,0.75191593170166;1,1" />
	<E K="HighlightRecovery" V="10" />
	<E K="Name" V="SPR-06" />
	<E K="ShadowRecovery" V="10" />
	<E K="UUID" V="DCF62043-71A2-4D61-9AD3-3F972A79BBE4" />
</SL>
