DECONSTUCTING-CAPTURE/CAPTURE/Contents/Resources/Styles/SPRING/SPR-01.costyle
<?xml version="1.0"?>
<SL Engine="1100">
	<E K="ColorBalance" V="1;0.951961934566498;0.868432223796844" />
	<E K="ColorBalanceHighlight" V="1;1;1" />
	<E K="ColorBalanceMidtone" V="1;0.973538637161255;0.947510957717896" />
	<E K="ColorBalanceShadow" V="1;0.947788417339325;0.99440199136734" />
	<E K="ColorCorrections" V="1,1,0,9.5424108505249,-20,1.49908673763275,109,124,57,-20,20,-54.0322570800781,45.9677429199219,20,0,0,0,0;1,1,0,0,-9.18476104736328,-0.269379079341888,148,124,115,-20,20,-22.2973003387451,77.7026977539062,20,0,0,0,0;0,1,0,0,-7.06168842315674,0,0,0,0,0,0,0,0,20,0,0,0,0;1,1,0,-30,-9.33695220947266,0.309963464736938,168.508346557617,191.828002929688,229,-20.5758361816406,25.0063781738281,-26.4155712127686,73.5844268798828,20,0,0,0,0" />
	<E K="GradationCurve" V="0,0;0.0903268530964851,0.0669456869363785;0.325281590223312,0.327027529478073;1,1" />
	<E K="GradationCurveBlue" V="0,0;1,1" />
	<E K="GradationCurveGreen" V="0,0;1,1" />
	<E K="GradationCurveRed" V="0,0;1,1" />
	<E K="GradationCurveY" V="0,0;0.300670832395554,0.341517865657806;1,1" />
	<E K="HighlightRecovery" V="15" />
	<E K="Name" V="SPR-01" />
	<E K="ShadowRecovery" V="10.1486406326294" />
	<E K="UUID" V="8E172124-DFDC-4C0A-AE3F-7E194BE87684" />
</SL>
