DECONSTUCTING-CAPTURE/CAPTURE/Contents/Resources/Styles/LEGACY/Skin Effects/Skin Effects - Golden 5.costyle
<?xml version="1.0"?>
<SL Engine="800">
  <E K="HighlightRecovery" V="18.15424"/>
  <E K="GradationCurveBlue" V="0.000,0.000;0.551,0.638;1.000,1.000"/>
  <E K="ColorCorrections" V="1,1,1,0.000000,0.000000,0.000000,127.000000,63.000000,119.000000,-28.822567,28.822567,-50.000000,50.000000,12.000000,0.000000,0;1,1,1,0.000000,0.000000,0.000000,67.000000,63.000000,127.000000,-21.978279,21.978279,-50.000000,50.000000,12.000000,0.000000,0;1,1,1,0.000000,0.000000,0.000000,63.000000,118.000000,127.000000,-22.322311,22.322311,-50.000000,50.000000,12.000000,0.000000,0;1,1,1,0.000000,0.000000,0.000000,69.000000,127.000000,63.000000,-38.925846,38.925846,-50.000000,50.000000,12.000000,0.000000,0;1,1,1,0.000000,0.000000,0.000000,127.000000,115.000000,63.000000,-13.542439,13.542439,-50.000000,50.000000,12.000000,0.000000,0;1,1,1,0.000000,0.000000,0.000000,127.000000,68.000000,63.000000,-18.408569,18.408569,-50.000000,50.000000,12.000000,0.000000,0;0,1,1,0.000000,0.000000,0.000000,0.000000,0.000000,0.000000,0.000000,0.000000,0.000000,0.000000,0.000000,0.000000,0;1,1,2,0.000000,11.620111,0.000000,224.000000,188.000000,169.000000,-22.160919,20.227760,-20.000000,24.524040,15.000000,0.192956,0"/>
  <E K="GradationCurveRed" V="0.000,0.000;1.000,1.000"/>
  <E K="Name" V="Skin Effects - Golden 5"/>
  <E K="GradationCurve" V="0.000,0.000;1.000,1.000"/>
  <E K="GradationCurveGreen" V="0.000,0.000;0.556,0.600;1.000,1.000"/>
  <E K="UUID" V="9536D7BD-D6DD-470B-BF56-CCEDD91D12FF"/>
</SL>

