DECONSTUCTING-CAPTURE/CAPTURE/Contents/Resources/Styles/LEGACY/Skin Effects/Skin Effects - Golden 3.costyle
<?xml version="1.0"?>
<SL Engine="800">
  <E K="HighlightRecovery" V="51.1326"/>
  <E K="GradationCurveBlue" V="0.000,0.026;1.000,0.955"/>
  <E K="ColorCorrections" V="1,1,1,0.000000,0.000000,0.000000,127.000000,63.000000,119.000000,-28.822567,28.822567,-50.000000,50.000000,12.000000,0.000000,0;1,1,1,0.000000,0.000000,0.000000,67.000000,63.000000,127.000000,-21.978279,21.978279,-50.000000,50.000000,12.000000,0.000000,0;1,1,1,0.000000,0.000000,0.000000,63.000000,118.000000,127.000000,-22.322311,22.322311,-50.000000,50.000000,12.000000,0.000000,0;1,1,1,0.000000,0.000000,0.000000,69.000000,127.000000,63.000000,-38.925846,38.925846,-50.000000,50.000000,12.000000,0.000000,0;1,1,1,0.000000,0.000000,0.000000,127.000000,115.000000,63.000000,-13.542439,13.542439,-50.000000,50.000000,12.000000,0.000000,0;1,1,1,0.000000,0.000000,0.000000,127.000000,68.000000,63.000000,-18.408569,18.408569,-50.000000,50.000000,12.000000,0.000000,0;0,1,1,0.000000,0.000000,0.000000,0.000000,0.000000,0.000000,0.000000,0.000000,0.000000,0.000000,0.000000,0.000000,0;1,1,0,5.027933,13.128491,0.238303,209.000000,175.000000,155.000000,-20.000000,20.000000,-20.000000,20.000000,26.526253,0.000000,0;1,1,2,0.000000,0.000000,0.000000,205.000000,175.000000,160.000000,-26.906158,24.092361,-20.000000,36.780518,30.000000,0.204369,0"/>
  <E K="Saturation" V="-20.12919"/>
  <E K="GradationCurveRed" V="0.000,0.000;1.000,1.000"/>
  <E K="Name" V="Skin Effects - Golden 3"/>
  <E K="GradationCurve" V="0.000,0.000;1.000,1.000"/>
  <E K="GradationCurveGreen" V="0.000,0.000;1.000,1.000"/>
  <E K="UUID" V="6B277A84-2A47-4549-8913-460721FD4195"/>
</SL>

