DECONSTUCTING-CAPTURE/CAPTURE/Contents/Resources/Styles/LEGACY/Skin Effects/Skin Effects - Fade 9.costyle
<?xml version="1.0"?>
<SL Engine="800">
  <E K="GradationCurveBlue" V="0.000,0.000;1.000,1.000"/>
  <E K="ColorCorrections" V="1,1,1,0.000000,0.000000,0.000000,127.000000,63.000000,119.000000,-28.822567,28.822567,-50.000000,50.000000,12.000000,0.000000,0;1,1,1,0.000000,0.000000,0.000000,67.000000,63.000000,127.000000,-21.978279,21.978279,-50.000000,50.000000,12.000000,0.000000,0;1,1,1,0.000000,0.000000,0.000000,63.000000,118.000000,127.000000,-22.322311,22.322311,-50.000000,50.000000,12.000000,0.000000,0;1,1,1,0.000000,0.000000,0.000000,69.000000,127.000000,63.000000,-38.925846,38.925846,-50.000000,50.000000,12.000000,0.000000,0;1,1,1,0.000000,0.000000,0.000000,127.000000,115.000000,63.000000,-13.542439,13.542439,-50.000000,50.000000,12.000000,0.000000,0;1,1,1,0.000000,0.000000,0.000000,127.000000,68.000000,63.000000,-18.408569,18.408569,-50.000000,50.000000,12.000000,0.000000,0;0,1,1,0.000000,0.000000,0.000000,0.000000,0.000000,0.000000,0.000000,0.000000,0.000000,0.000000,0.000000,0.000000,0;1,1,0,-30.000000,-100.000000,0.000000,180.000000,133.000000,93.000000,-20.000000,20.000000,-1000000.000000,1000000.000000,24.661972,0.000000,1;1,1,0,-8.028168,-56.690140,0.000000,179.000000,129.000000,85.000000,-20.000000,20.000000,-1000000.000000,1000000.000000,23.676058,0.000000,0;1,1,0,-30.000000,0.000000,0.000000,192.000015,145.000000,97.000008,-20.000000,20.000000,-1000000.000000,1000000.000000,20.000000,0.000000,0;1,1,0,-30.000000,0.000000,0.000000,193.000015,146.000000,98.000008,-20.000000,20.000000,-1000000.000000,1000000.000000,20.000000,0.000000,0;1,1,0,-30.000000,0.000000,0.000000,192.000015,145.000000,96.000008,-20.000000,20.000000,-1000000.000000,1000000.000000,20.000000,0.000000,0;1,1,0,-30.000000,0.000000,0.000000,186.000000,138.000000,90.000000,-20.000000,20.000000,-1000000.000000,1000000.000000,20.000000,0.000000,0;1,1,0,-26.830986,-16.549299,2.394366,192.000015,148.000000,103.000008,-20.000000,20.000000,-1000000.000000,1000000.000000,20.000000,0.000000,0"/>
  <E K="GradationCurveRed" V="0.000,0.000;1.000,1.000"/>
  <E K="Name" V="Skin Effects - Fade 9"/>
  <E K="GradationCurve" V="0.000,0.000;1.000,1.000"/>
  <E K="Contrast" V="16.667"/>
  <E K="GradationCurveGreen" V="0.000,0.000;1.000,1.000"/>
  <E K="UUID" V="B7B0DE94-3B7C-495D-A13E-F4812E117DDD"/>
</SL>

