DECONSTUCTING-CAPTURE/CAPTURE/Contents/Resources/Styles/LEGACY/Skin Effects/Skin Effects - Fade 1.costyle
<?xml version="1.0" encoding="utf-8"?>
<SL Engine="800">
  <E K="Contrast" V="11.000" />
  <E K="GradationCurve" V="0.000,0.000;0.164,0.162;0.503,0.531;1.000,1.000" />
  <E K="GradationCurveRed" V="0.000,0.000;1.000,1.000" />
  <E K="GradationCurveGreen" V="0.000,0.000;1.000,1.000" />
  <E K="GradationCurveBlue" V="0.000,0.000;1.000,1.000" />
  <E K="Name" V="Skin Effects - Fade 1" />
  <E K="UUID" V="4a444c37-0a37-45b9-b366-65895d76bc83" />
  <E K="StyleSource" V="Styles" />
  <E K="ColorCorrections" V="1,1,1,0.000000,0.000000,0.000000,127.000000,63.000000,119.000000,-28.822567,28.822567,-10000000.000000,10000000.000000,12.000000,0.000000,0;1,1,1,0.000000,0.000000,0.000000,67.000000,63.000000,127.000000,-21.978279,21.978279,-10000000.000000,10000000.000000,12.000000,0.000000,0;1,1,1,0.000000,0.000000,0.000000,63.000000,118.000000,127.000000,-22.322311,22.322311,-10000000.000000,10000000.000000,12.000000,0.000000,0;1,1,1,0.000000,0.000000,0.000000,69.000000,127.000000,63.000000,-38.925846,38.925846,-10000000.000000,10000000.000000,12.000000,0.000000,0;1,1,1,0.000000,0.000000,0.000000,127.000000,115.000000,63.000000,-13.542439,13.542439,-10000000.000000,10000000.000000,12.000000,0.000000,0;1,1,1,0.000000,0.000000,0.000000,127.000000,68.000000,63.000000,-18.408569,18.408569,-10000000.000000,10000000.000000,12.000000,0.000000,0;0,1,1,0.000000,0.000000,0.000000,0.000000,0.000000,0.000000,-8.000000,8.000000,-10000000.000000,10000000.000000,0.000000,0.000000,0;1,1,0,0.000000,-80.000000,0.000000,180.000000,133.000000,93.000000,-55.304710,20.000000,-1000000.000000,1000000.000000,24.661972,0.000000,1;1,1,0,-7.605636,-40.845070,0.000000,179.000000,129.000000,85.000000,-56.272484,20.000000,-1000000.000000,1000000.000000,23.676058,0.000000,0;" />
</SL>