DECONSTUCTING-CAPTURE/CAPTURE/Contents/Resources/Styles/LEGACY/Skin Effects/Skin Effects - Fade 5.costyle
<?xml version="1.0"?>
<SL Engine="800">
  <E K="Saturation" V="-77.778"/>
  <E K="Name" V="Skin Effects - Fade 5"/>
  <E K="Contrast" V="27.778"/>
  <E K="UUID" V="37AF3E22-B377-4572-998D-052CC59A95DC"/>
</SL>

