DECONSTUCTING-CAPTURE/CAPTURE/Contents/Resources/Styles/LEGACY/Color Effects/Color Effects - Blue 2.costyle
<?xml version="1.0"?>
<SL Engine="800">
  <E K="ColorCorrections" V="1,1,1,0.000000,0.000000,0.000000,127.000000,63.000000,119.000000,-28.822567,28.822567,-50.000000,50.000000,12.000000,0.000000,0;1,1,1,0.000000,0.000000,0.000000,67.000000,63.000000,127.000000,-21.978279,21.978279,-50.000000,50.000000,12.000000,0.000000,0;1,1,1,0.000000,0.000000,0.000000,63.000000,118.000000,127.000000,-22.322311,22.322311,-50.000000,50.000000,12.000000,0.000000,0;1,1,1,0.000000,0.000000,0.000000,69.000000,127.000000,63.000000,-38.925846,38.925846,-50.000000,50.000000,12.000000,0.000000,0;1,1,1,0.000000,0.000000,0.000000,127.000000,115.000000,63.000000,-13.542439,13.542439,-50.000000,50.000000,12.000000,0.000000,0;1,1,1,0.000000,0.000000,0.000000,127.000000,68.000000,63.000000,-18.408569,18.408569,-50.000000,50.000000,12.000000,0.000000,0;0,1,1,0.000000,0.000000,0.000000,0.000000,0.000000,0.000000,0.000000,0.000000,0.000000,0.000000,0.000000,0.000000,0;1,1,0,0.000000,-54.761890,0.000000,55.000004,78.000000,115.000008,-20.000000,20.000000,-1000000.000000,1000000.000000,20.000000,0.000000,1;1,1,0,0.000000,-21.428560,0.000000,56.000004,81.000000,119.000008,-20.000000,20.000000,-1000000.000000,1000000.000000,20.000000,0.000000,0"/>
  <E K="Name" V="Color Effects - Blue 2"/>
  <E K="UUID" V="990976C1-41AE-4C37-973C-1931655F95F8"/>
</SL>

