DECONSTUCTING-CAPTURE/CAPTURE/Contents/Resources/Styles/LEGACY/Color Effects/Color Effects - Creative 8.costyle
<?xml version="1.0" encoding="utf-8"?>
<SL Engine="800">
  <E K="GradationCurve" V="0.000,0.000;1.000,1.000" />
  <E K="GradationCurveRed" V="0.000,0.000;0.506,0.449;1.000,1.000" />
  <E K="GradationCurveGreen" V="0.000,0.000;1.000,1.000" />
  <E K="GradationCurveBlue" V="0.000,0.049;0.892,1.000" />
  <E K="Name" V="Color Effects - Creative 8" />
  <E K="UUID" V="1421bac4-6757-47b3-adb1-8582371158d0" />
  <E K="StyleSource" V="Styles" />
  <E K="Vignetting" V="-1.500000|1|0|1" />
</SL>