DECONSTUCTING-CAPTURE/CAPTURE/Contents/Resources/Styles/LEGACY/Color Effects/Color Effects - Creative 7.costyle
<?xml version="1.0"?>
<SL Engine="800">
  <E K="GradationCurveBlue" V="0.000,0.044;0.270,0.269;0.713,0.679;1.000,1.000"/>
  <E K="Saturation" V="-31.25"/>
  <E K="GradationCurveRed" V="0.000,0.000;0.265,0.292;0.593,0.657;1.000,1.000"/>
  <E K="Name" V="Color Effects - Creative 7"/>
  <E K="GradationCurve" V="0.000,0.000;1.000,1.000"/>
  <E K="Contrast" V="10"/>
  <E K="GradationCurveGreen" V="0.000,0.000;1.000,1.000"/>
  <E K="UUID" V="546779BB-2456-4451-8D56-6B3B08D877E8"/>
</SL>

