DECONSTUCTING-CAPTURE/CAPTURE/Contents/Packages/CH/Styles/Film Scanning/B&W Negative Film/B&W Generic 1.costyle
<?xml version="1.0"?>
<SL Engine="800">
  <E K="Contrast" V="8.027523"/>
  <E K="Exposure" V="2.417431"/>
  <E K="FilmCurve" V="PhaseOneIQ180-Linear Response.fcrv"/>
  <E K="Flip" V="1"/>
  <E K="Name" V="B&amp;W Generic 01"/>
  <E K="Saturation" V="-100"/>
  <E K="TechnicalProcessingMethod" V="2"/>
  <E K="UUID" V="4FD0E17F-B1FC-4E78-BEAC-92315B3B15E3"/>
</SL>

