DECONSTUCTING-CAPTURE/CAPTURE/Contents/Packages/CH/Styles/Film Scanning/B&W Negative Film/B&W Generic 2.costyle
<?xml version="1.0"?>
<SL Engine="800">
  <E K="Contrast" V="8.027523"/>
  <E K="Exposure" V="1.7"/>
  <E K="FilmCurve" V="PhaseOneIQ180-Linear Response.fcrv"/>
  <E K="Flip" V="1"/>
  <E K="Name" V="B&amp;W Generic 1"/>
  <E K="Saturation" V="-100"/>
  <E K="TechnicalProcessingMethod" V="2"/>
  <E K="UUID" V="2A6BB7D2-20B3-4C40-82A3-05D01AE157AC"/>
</SL>

