DECONSTUCTING-CAPTURE/CAPTURE/Contents/Packages/CH/Styles/Film Scanning/B&W Negative Film/B&W Generic 3.costyle
<?xml version="1.0"?>
<SL Engine="800">
  <E K="Contrast" V="8.027523"/>
  <E K="Exposure" V="0.8725899"/>
  <E K="FilmCurve" V="PhaseOneIQ180-Linear Response.fcrv"/>
  <E K="Flip" V="1"/>
  <E K="Name" V="B&amp;W Generic 3"/>
  <E K="Saturation" V="-100"/>
  <E K="TechnicalProcessingMethod" V="2"/>
  <E K="UUID" V="3661D21C-A411-4975-8E92-C42ED3CCB0BE"/>
</SL>

