DECONSTUCTING-CAPTURE/CAPTURE/Contents/Resources/Styles/LEGACY/Landscape/Landscape - Color 1.costyle
<?xml version="1.0"?>
<SL Engine="800">
  <E K="HighlightRecovery" V="15.40241"/>
  <E K="ClarityMethod" V="1"/>
  <E K="ClarityStructure" V="10.13443"/>
  <E K="ShadowRecovery" V="13.72643"/>
  <E K="Clarity" V="20.19029"/>
  <E K="Name" V="Landscape - Color 1"/>
  <E K="UUID" V="882A0CE1-E30C-44EA-A333-C140646FE270"/>
</SL>

