DECONSTUCTING-CAPTURE/CAPTURE/Contents/Resources/Styles/LEGACY/Landscape/Landscape - Color 2.costyle
<?xml version="1.0"?>
<SL Engine="800">
  <E K="HighlightRecovery" V="30.46875"/>
  <E K="ClarityMethod" V="1"/>
  <E K="ClarityStructure" V="10.13443"/>
  <E K="ShadowRecovery" V="30.46875"/>
  <E K="Saturation" V="8.938547"/>
  <E K="Clarity" V="20.19029"/>
  <E K="Name" V="Landscape - Color 2"/>
  <E K="UUID" V="7E00AFB6-1F5B-4988-BF2A-99C44DDF851A"/>
</SL>

