DECONSTUCTING-CAPTURE/CAPTURE/Contents/Resources/Styles/IQ Styles/B&W Neutral.costyle
<?xml version="1.0"?>
<SL Engine="1100">
	<E K="BwEnabled" V="1" />
	<E K="Name" V="B&W Neutral" />
	<E K="UUID" V="FA878B7D-21EB-47B9-A665-3106076E43A5" />
</SL>
