DECONSTUCTING-CAPTURE/CAPTURE/Contents/Resources/Styles/IQ Styles/B&W Contrast.costyle
<?xml version="1.0"?>
<SL Engine="1100">
	<E K="BwEnabled" V="1" />
	<E K="GradationCurve" V="0,0;1,1" />
	<E K="GradationCurveBlue" V="0,0;1,1" />
	<E K="GradationCurveGreen" V="0,0;1,1" />
	<E K="GradationCurveRed" V="0,0;1,1" />
	<E K="GradationCurveY" V="0,0;0.184000000357628,0.146999999880791;0.702000021934509,0.797999978065491;1,1" />
	<E K="Name" V="B&W Contrast" />
	<E K="UUID" V="11918F29-4B50-4AE8-A656-09F2D6F50B21" />
</SL>
