DECONSTUCTING-CAPTURE/CAPTURE/Contents/Resources/Styles/IQ Styles/Fashion.costyle
<?xml version="1.0"?>
<SL Engine="1100">
	<E K="ColorBalance" V="1;1;1" />
	<E K="ColorBalanceHighlight" V="1;0.999989986419678;0.999989986419678" />
	<E K="ColorBalanceMidtone" V="1;0.985436677932739;0.965211689472198" />
	<E K="ColorBalanceShadow" V="0.959908604621887;0.985918879508972;1" />
	<E K="Contrast" V="9.56693744659424" />
	<E K="Name" V="Fashion" />
	<E K="Saturation" V="-10.3034553527832" />
	<E K="UUID" V="BFCE8278-7814-4021-8307-2549208E7C86" />
</SL>
