DECONSTUCTING-CAPTURE/CAPTURE/Contents/Resources/Styles/IQ Styles/IQ Professor.costyle
<?xml version="1.0"?>
<SL Engine="1100">
	<E K="Contrast" V="-34.3708648681641" />
	<E K="Name" V="IQ Professor" />
	<E K="Saturation" V="10.2265214920044" />
	<E K="UUID" V="C89266D9-9E0B-4C69-9127-E20EB734CF1D" />
</SL>
