DECONSTUCTING-CAPTURE/CAPTURE/Contents/Packages/CH/Styles/Film Scanning/Color Negative Film/Color Negative Generic 03.costyle
<?xml version="1.0"?>
<SL Engine="800">
  <E K="Brightness" V="-5.29494"/>
  <E K="Contrast" V="26.33673"/>
  <E K="Exposure" V="2.521072"/>
  <E K="FilmCurve" V="PhaseOneIQ180-Linear Response.fcrv"/>
  <E K="Flip" V="1"/>
  <E K="Name" V="Color Negative Generic 03"/>
  <E K="TechnicalProcessingMethod" V="2"/>
  <E K="UUID" V="8FDE04F7-91E4-4893-8E81-E13263C8C8C4"/>
</SL>

