DECONSTUCTING-CAPTURE/CAPTURE/Contents/Packages/CH/Styles/Film Scanning/Color Negative Film/Color Negative Generic 04.costyle
<?xml version="1.0"?>
<SL Engine="800">
  <E K="Brightness" V="-1.625215"/>
  <E K="Contrast" V="24.52157"/>
  <E K="Exposure" V="2.471066"/>
  <E K="FilmCurve" V="PhaseOneIQ180-Linear Response.fcrv"/>
  <E K="Flip" V="1"/>
  <E K="Name" V="Color Negative Generic 04"/>
  <E K="TechnicalProcessingMethod" V="2"/>
  <E K="UUID" V="FBB78C3A-0671-4161-AFF4-919B25DC6F50"/>
</SL>

